X: 2629
T: Banana Leaf
R: jig
M: 6/8
K: Gmajor
|:DE/F/G ABc|ded BAG|cgc BgB|AGE E{F}ED|
DE/F/G ABc|ded BAG|cgc BAB|1 AGE G2E:|2 AGE G2G||
|:GgG fGe|ded BAG|cgc BgB
[1 AGE AGE|GgG fGe|ded BAG|cgc BAB|AGE G2G:|
[2 AGE E{F}ED|DE/F/G ABc|ded BAG|cgc BAB|AGE G3||

